X: 8322
T: Cory's
R: polka
M: 2/4
K: Dmajor
|:fA fe/f/|gB ga/g/|fA fe/f/|g/f/e/d/ c/e/d/e/|
fA fe/f/|gB ga/g/|f/d/f/a/ f/e/c/e/|1 d2- dd/e/:|2 d2- d2||
|:A>B AG|FA dB|d>B AF|E4|
A>B A/G/F/E/|DF/A/ dc/d/|eg Bc|1 d2- d2:|2 d2- dE||
|:DF/A/ BA|d/e/f/d/ Af|g/f/e/c/ e/d/c/d/|e/d/c/B/ A/G/F/E/|
DF/A/ BA|d/e/f/d/ Af|g/f/e/c/ e/d/c/e/|1 d2- dE:|2 d2- dd/e/||

